X:1
T:E. O. Excell
T:Eben E. Rexford
T:The Beacon of the Cross
%%score { ( 1 2 ) | ( 3 4 ) }
L:1/8
M:4/4
K:Eb
V:1 treble 
V:2 treble 
V:3 bass 
V:4 bass 
V:1
 E2 | G3 G G2 A2 | B2 B2 B2 E2 | G3 G G2 F2 | E2 E2 E2 E2 | G3 G G2 A2 | B2 B2 B2 E2 | G3 G G2 E2 | %8
w: Some\-|times the mists of|doubt and sin Will|gath\- er round the|way we tread, Un\-|til such dark\- ness|shuts us in; We|can\- not see the|
w: ||||||||
w: ||* * * A\-|bove sin's dang\- 'rous|reef and shoal, Flash|earth\- ward from the|heav'n\- ly shore The|land\- mark of the|
 F2 E2 E2"^Chorus" B2 | e e3 e3 B | c2 B2 B2 B2 | e3 e e3 G | G2 F2 F2 A2 | G3 F E2 G2 | %14
w: path a\- head. O|sin\- ner, look to|Calv\- 'ry's hill, The|cross of Christ is|stand\- ing still\- Will|stand for\- ev\- er|
w: ||||||
w: Chris\- tian soul. *||||||
 B2 B2 B2 c2 | B3 G E2 E2 | G2 F2[Q:1/4=48]"^Largo" E4 |] %17
w: more, to show Earth's|wand\- 'ring child\- ren|where to go.|
w: |||
w: |||
V:2
{/x} E2 | E3 E E2 F2 | G2 G2 G2 E2 | E3 E E2 D2 | E2 C2 B,2 B,2 | E3 E E2 F2 | G2 G2 G2 E2 | %7
w: |||||||
w: When|grop\- ing blind\- ly|thro' the dark, "Lord,|we have lost the|way," we cry; Then|lo! the heav'n\- ward|path to mark, His|
w: O|bea\- con, burn for\-|ev\- er\- more *|||||
 E3 E E2 B,2 | B,2 B,2 B,2 G2 | G G3 G3 G | A2 G2 G2 G2 | G G2 G G3 E | E2 D2 D2 F2 | %13
w: ||||||
w: cross stands out a\-|gainst the sky. *|||||
w: ||||||
 E3 B, B,2 E2 | G2 G2 G2 A2 | G3 E E2 E2 | E2 D2 !fermata!E4 |] %17
w: ||||
w: ||||
w: ||||
V:3
 G,2 | B,3 B, B,2 B,2 | E2 E2 E2 G,2 | B,3 B, B,2 A,2 | G,2 A,2 G,2 G,2 | B,3 B, B,2 B,2 | %6
 E2 E2 E2 G,2 | B,3 B, B,2 G,2 | A,2 G,2 G,2 B,2 | B, B,3 B,3 E | E2 E2 E2 E2 | B,3 B, B,3 B, | %12
 B,2 B,2 B,2 B,2 | B,3 A, G,2 B,2 | E2 E2 E2 E2 | E3 B, G,2 G,2 | B,2 A,2 G,4 |] %17
V:4
 E,2 | E,3 E, E,2 E,2 | E,2 E,2 E,2 E,2 | B,,3 B,, B,,2 B,,2 | E,2 E,2 E,2 E,2 | E,3 E, E,2 E,2 | %6
 E,2 E,2 E,2 E,2 | B,,3 B,, B,,2 B,,2 | B,,2 E,2 E,2 E,2 | E, E,3 E,3 E, | E,2 E,2 E,2 E,2 | %11
 E,3 E, E,3 E, | B,,2 B,,2 B,,2 B,,2 | E,3 E, E,2 E,2 | E,2 E,2 E,2 E,2 | B,,3 B,, B,,2 B,,2 | %16
 B,,2 B,,2 !fermata!E,4 |] %17

